Ministry.BlogPage/wwwroot/dist/img/about_agency/development.svg

<svg width="53" height="53" viewBox="0 0 53 53" fill="none" xmlns="http://www.w3.org/2000/svg">
<path d="M36.5751 19.1583C38.653 19.156 40.6451 18.3296 42.1145 16.8602C43.5838 15.3909 44.4102 13.3988 44.4126 11.3208V7.8375C44.4126 5.75887 43.5868 3.76537 42.117 2.29555C40.6472 0.825734 38.6537 0 36.5751 0C34.4964 0 32.5029 0.825734 31.0331 2.29555C29.5633 3.76537 28.7375 5.75887 28.7375 7.8375V11.3208C28.7399 13.3988 29.5663 15.3909 31.0356 16.8602C32.505 18.3296 34.4971 19.156 36.5751 19.1583ZM30.4792 7.8375C30.4792 6.22079 31.1215 4.67029 32.2646 3.52709C33.4078 2.3839 34.9583 1.74167 36.5751 1.74167C38.1918 1.74167 39.7423 2.3839 40.8855 3.52709C42.0286 4.67029 42.6709 6.22079 42.6709 7.8375V11.3208C42.6709 12.9376 42.0286 14.488 40.8855 15.6312C39.7423 16.7744 38.1918 17.4167 36.5751 17.4167C34.9583 17.4167 33.4078 16.7744 32.2646 15.6312C31.1215 14.488 30.4792 12.9376 30.4792 11.3208V7.8375Z" fill="white"/>
<path d="M44.4124 20.9H33.0916V22.6417H33.3729L34.8176 26.2539L33.0916 45.2041C33.0797 45.3316 33.0962 45.4601 33.1397 45.5805C33.1832 45.701 33.2527 45.8103 33.3433 45.9008L35.9558 48.5133C36.1191 48.6765 36.3405 48.7683 36.5714 48.7683C36.8024 48.7683 37.0238 48.6765 37.1871 48.5133L39.7996 45.9008C39.8902 45.8103 39.9597 45.701 40.0032 45.5805C40.0467 45.4601 40.0631 45.3316 40.0513 45.2041L38.3323 26.2539L39.777 22.6417H44.4124C46.0286 22.6435 47.578 23.2864 48.7208 24.4292C49.8636 25.5719 50.5064 27.1214 50.5083 28.7375V50.5084H46.1541V28.7375H44.4124V50.5084H28.7374V47.025H26.9958V50.5084H21.7708V52.25H51.3791C51.61 52.25 51.8315 52.1583 51.9949 51.995C52.1582 51.8317 52.2499 51.6102 52.2499 51.3792V28.7375C52.2476 26.6596 51.4211 24.6674 49.9518 23.1981C48.4825 21.7288 46.4903 20.9023 44.4124 20.9ZM37.9012 22.6417L36.8562 25.2542H36.2936L35.2486 22.6417H37.9012ZM36.5749 46.6645L34.8663 44.9559L36.4992 26.9959H36.6507L38.2835 44.9559L36.5749 46.6645Z" fill="white"/>
<path d="M10.733 49.4825L15.2335 52.1299C15.3673 52.2086 15.5197 52.2501 15.675 52.2501C15.8303 52.2501 15.9827 52.2086 16.1165 52.1299L20.617 49.4825C23.8794 47.5536 26.5842 44.8094 28.4658 41.5195C30.3475 38.2296 31.3414 34.507 31.35 30.7169V20.9C31.35 20.6691 31.2583 20.4476 31.0949 20.2843C30.9316 20.1209 30.7101 20.0292 30.4792 20.0292C25.5819 20.0187 20.8183 18.4308 16.8942 15.5009L16.1975 14.9784C16.0468 14.8653 15.8634 14.8042 15.675 14.8042C15.4866 14.8042 15.3032 14.8653 15.1525 14.9784L14.4558 15.5009C10.5318 18.4311 5.76815 20.019 0.870834 20.0292C0.639874 20.0292 0.418374 20.1209 0.255061 20.2843C0.0917482 20.4476 0 20.6691 0 20.9V30.7169C0.0085781 34.507 1.00248 38.2296 2.88416 41.5195C4.76583 44.8094 7.47061 47.5536 10.733 49.4825ZM1.74167 21.7543C6.71474 21.5668 11.5133 19.8718 15.5008 16.8942L15.675 16.7644L15.8492 16.8942C19.8367 19.8718 24.6353 21.5668 29.6083 21.7543V30.7169C29.6008 34.2039 28.6867 37.6291 26.9557 40.6561C25.2247 43.6831 22.7363 46.208 19.7348 47.983L15.675 50.369L11.6152 47.983C8.61368 46.208 6.1253 43.6831 4.3943 40.6561C2.6633 37.6291 1.74918 34.2039 1.74167 30.7169V21.7543Z" fill="white"/>
<path d="M12.4989 46.4798L15.2333 48.0891C15.3673 48.1672 15.5197 48.2084 15.6748 48.2084C15.83 48.2084 15.9823 48.1672 16.1163 48.0891L18.8508 46.4807C21.5913 44.8603 23.8634 42.5551 25.444 39.7914C27.0246 37.0278 27.8594 33.9006 27.8665 30.7169V24.1534C27.8664 23.9421 27.7895 23.7381 27.6501 23.5793C27.5107 23.4205 27.3183 23.3179 27.1089 23.2904C23.1992 22.7718 19.4552 21.3849 16.1512 19.2314C16.0095 19.1389 15.844 19.0896 15.6748 19.0896C15.5056 19.0896 15.3401 19.1389 15.1985 19.2314C11.8943 21.3847 8.15034 22.7715 4.24078 23.2904C4.0313 23.3179 3.83895 23.4205 3.69956 23.5793C3.56017 23.7381 3.48326 23.9421 3.48315 24.1534V30.7169C3.49013 33.9005 4.32491 37.0276 5.90554 39.7911C7.48617 42.5547 9.75832 44.8597 12.4989 46.4798ZM5.22482 24.9058C8.93406 24.3103 12.4869 22.9798 15.6748 20.9923C18.8627 22.9798 22.4156 24.3103 26.1248 24.9058V30.716C26.1188 33.5966 25.3636 36.4261 23.9335 38.9266C22.5034 41.4271 20.4475 43.5127 17.9677 44.9785L15.6748 46.3283L13.381 44.9785C10.9015 43.5128 8.84574 41.4273 7.41577 38.9269C5.98581 36.4266 5.23077 33.5972 5.22482 30.7169V24.9058Z" fill="white"/>
<path d="M16.5459 23.5125H14.8042V25.2541H16.5459V23.5125Z" fill="white"/>
<path d="M8.70846 26.125H6.9668V27.8667H8.70846V26.125Z" fill="white"/>
<path d="M8.70846 32.2208H6.9668V33.9625H8.70846V32.2208Z" fill="white"/>
<path d="M24.3835 26.125H22.6418V27.8667H24.3835V26.125Z" fill="white"/>
<path d="M24.3835 32.2208H22.6418V33.9625H24.3835V32.2208Z" fill="white"/>
<path d="M11.321 37.4458H9.57935V39.1875H11.321V37.4458Z" fill="white"/>
<path d="M21.771 37.4458H20.0293V39.1875H21.771V37.4458Z" fill="white"/>
<path d="M16.5459 41.8H14.8042V43.5417H16.5459V41.8Z" fill="white"/>
</svg>

<svg width="53" height="53" fill="none" xmlns="http://www.w3.org/2000/svg"><path d="M36.575 19.158a7.846 7.846 0 007.838-7.837V7.838a7.838 7.838 0 00-15.675 0v3.483a7.847 7.847 0 007.837 7.837zM30.48 7.838a6.096 6.096 0 0112.192 0v3.483a6.096 6.096 0 01-12.192 0V7.838zM44.412 20.9h-11.32v1.742h.28l1.446 3.612-1.726 18.95a.87.87 0 00.251.697l2.613 2.612a.87.87 0 001.231 0l2.613-2.612a.87.87 0 00.251-.697l-1.719-18.95 1.445-3.612h4.635a6.103 6.103 0 016.096 6.096v21.77h-4.354v-21.77h-1.742v21.77H28.737v-3.483h-1.741v3.483H21.77v1.742h29.608a.871.871 0 00.87-.87V28.736a7.846 7.846 0 00-7.837-7.837zm-6.51 1.742l-1.046 2.612h-.562l-1.045-2.612H37.9zm-1.327 24.022l-1.709-1.708 1.633-17.96h.152l1.632 17.96-1.708 1.708z" fill="#fff"/><path d="M10.733 49.483l4.5 2.647a.87.87 0 00.883 0l4.501-2.648A21.857 21.857 0 0031.35 30.718V20.9a.87.87 0 00-.87-.87 22.789 22.789 0 01-13.586-4.53l-.696-.522a.87.87 0 00-1.046 0l-.696.523A22.784 22.784 0 01.87 20.029.87.87 0 000 20.9v9.817a21.858 21.858 0 0010.733 18.766zM1.742 21.754a24.542 24.542 0 0013.759-4.86l.174-.13.174.13a24.542 24.542 0 0013.76 4.86v8.963a20.11 20.11 0 01-9.874 17.266l-4.06 2.386-4.06-2.386a20.11 20.11 0 01-9.873-17.266v-8.963z" fill="#fff"/><path d="M12.499 46.48l2.734 1.61a.877.877 0 00.883 0l2.735-1.61a18.36 18.36 0 009.015-15.763v-6.564a.87.87 0 00-.757-.863 26.433 26.433 0 01-10.958-4.059.871.871 0 00-.953 0 26.442 26.442 0 01-10.957 4.06.87.87 0 00-.758.862v6.564A18.358 18.358 0 0012.5 46.48zM5.225 24.906a28.202 28.202 0 0010.45-3.914 28.202 28.202 0 0010.45 3.914v5.81a16.608 16.608 0 01-8.157 14.262l-2.293 1.35-2.294-1.35a16.607 16.607 0 01-8.156-14.261v-5.811z" fill="#fff"/><path d="M16.546 23.512h-1.742v1.742h1.742v-1.742zm-7.838 2.613H6.967v1.742h1.741v-1.742zm0 6.095H6.967v1.742h1.741v-1.741zm15.676-6.095h-1.742v1.742h1.742v-1.742zm0 6.095h-1.742v1.742h1.742v-1.741zm-13.063 5.226H9.579v1.742h1.742v-1.742zm10.45 0h-1.742v1.742h1.742v-1.742zM16.546 41.8h-1.742v1.742h1.742V41.8z" fill="#fff"/></svg>
